X:64
T:Jack Walker's Hornpipe. ThoH.064
Q:1/2=80
M:C
L:1/8
B:Thompson's Compleat Collection of 120 Favourite Hornpipes.
Z:Village Music Project, Simon Wilson 2016
O:England.
K:G
(B/4c/)<d cB{B}A2GF|GB dgTg2f2|gdcB ecBA|dBAG (F/4G/<A)A2|
(B/4c/<d) cB{B}A2GF|GB dg (f/4g/)<a a2|bgfe afed|A2T^c2d4:|
|:(d/4e/)<f ed ecac|(c/4d/)<e dc dBgB|(B/4c/)<d cB ADcA|
BGdBTB2A2|(B/4c/)<d cB {B}A2GF|GB dg Te2d2|ecBA dBAG|D2TF2G4:|

